Oxford/img/zno/abstraction.svg

<svg width="1440" height="266" fill="none" xmlns="http://www.w3.org/2000/svg"><mask id="a" maskUnits="userSpaceOnUse" x="0" y="0" width="1440" height="266"><path fill="#C4C4C4" d="M0 0h1440v266H0z"/></mask><g mask="url(#a)"><path d="M-481.379-787.2c70.443 55.136 136.146 115.259 185.809 185.817 29.956 42.57 60.296 91.367 68.659 140.788 14.358 84.783-15.903 176.651-39.143 261.024-25.069 90.988-62.554 190.476-51.921 282.232 5.237 45.397 24.832 82.089 66.041 111.695 36.328 25.971 79.321 43.161 124.96 49.964 88.04 13.395 179.657-2.366 266.635-15.361 91.234-13.579 185.741-30.087 278.51-20.686 65.77 6.656 130.389 30.22 191.587 51.848 92.239 32.607 182.378 70.272 271.185 109.575 56.706 25.08 113.537 50.579 169.517 76.979 111.31 52.484 219.92 110.128 330.07 164.936 81.35 40.482 447.78 239.996 539.02 257.446 12.66 2.417 26.68 4.178 39.35 1.853 26.77-4.926 16.03-36.323 8.27-49.349a55.494 55.494 0 00-3.84-5.418c-23.4-30.199-59.35-53.251-92.46-73.497-15.44-9.462-31.67-18.638-47.71-27.537C1670.78 630.542 1316.68 381.118 1155 311c-154-50.879-320-102.727-534-163.362-77.531-23.922-161.01-35.863-243.519-30.23-67.463 4.608-133.877 18.341-199.974 30.23-82.712 14.88-171.35 30.906-255.349 13.753-45.261-9.216-88.897-30.875-121.505-60.911-36.232-33.364-45.804-78.71-43.67-122.52 5.034-103.03 55.769-206.369 90.534-307.382 17.224-50.005 21.967-77.078 25.329-131.173 0-50.582-9.852-106.574-25.329-140.788-26.058-57.604-57.748-115.284-104.813-160.932-16.537-15.844-34.182-30.707-52.823-44.496-59.54-44.372-129.904-83.43-205.764-100.45-19.132-4.281-44.81-8.1-63.208.051-57.091 25.295 78.795 105.643 97.724 120.01" fill="#00237C"/><path d="M-682.631-702.043c65.462 51.03 123.808 107.401 169.93 170.988 30.286 41.753 59.599 87.688 75.046 134.361 26.127 78.934 19.461 166.068 17.029 248.958-2.688 91.4-6.581 184.305 11.311 273.213 9.658 47.985 30.919 92.259 74.681 126.375 41.087 32.055 90.822 53.572 144.412 66.437 112.8 27.063 234.237 24.736 350.406 23.639 62.409-.595 124.829-1.763 187.238-.84 56.169.83 116.06.594 170.891 11.993C671.008 384.86 812.975 468.078 940.371 542.04c44.93 26.089 90.359 52.024 134.889 78.513 71.76 42.675 139.87 90.056 211.24 133.52 377.44 189.968 444.39 223.725 519.48 236.723 16.21 2.809 33.74 5.228 49.65 3.762 22.32-2.05 55.42-8.928 59.11-32.68.23-1.358.31-2.731.23-4.101-1.21-23.444-27.87-44.643-45.69-60.143a427.306 427.306 0 00-35.75-27.463c-128.19-89.656-589.79-317.747-735.22-388.162C949.651 410.149 795.862 351.26 637 299c-88.474-29.103-193.745-66.759-289.578-66-80.568.666-140.349 17.888-220.285 24.234-99.093 7.873-220.237 24.274-317.359 0-51.595-12.896-84.192-45.536-120.317-79.303-36.489-34.033-46.912-80.891-46.475-124.335 1.034-103.25 44.201-207.072 66.447-310.301 10.546-48.928 18.391-99.056 14.024-148.866-4.245-48.385-24.91-89.851-50.61-132.239-34.945-57.693-76.299-113.941-126.155-162.408-16.831-16.313-35.731-31.022-56.364-43.864-54.734-34.157-117.702-64.429-187.749-69.288-22.125-1.537-48.044-.707-68.247 7.555-57.191 23.383 62.542 88.478 83.037 103.772z" fill="#C4C4C4"/></g></svg>

<svg width="1440" height="266" viewBox="0 0 1440 266" fill="none" xmlns="http://www.w3.org/2000/svg">
<mask id="mask0" mask-type="alpha" maskUnits="userSpaceOnUse" x="0" y="0" width="1440" height="266">
<rect width="1440" height="266" fill="#C4C4C4"/>
</mask>
<g mask="url(#mask0)">
<path d="M-481.379 -787.2C-410.936 -732.064 -345.233 -671.941 -295.57 -601.383C-265.614 -558.813 -235.274 -510.016 -226.911 -460.595C-212.553 -375.812 -242.814 -283.944 -266.054 -199.571C-291.123 -108.583 -328.608 -9.09485 -317.975 82.6614C-312.738 128.058 -293.143 164.75 -251.934 194.356C-215.606 220.327 -172.613 237.517 -126.974 244.32C-38.9349 257.715 52.6826 241.954 139.661 228.959C230.895 215.38 325.402 198.872 418.171 208.273C483.941 214.929 548.56 238.493 609.758 260.121C701.997 292.728 792.136 330.393 880.943 369.696C937.649 394.776 994.48 420.275 1050.46 446.675C1161.77 499.159 1270.38 556.803 1380.53 611.611C1461.88 652.093 1828.31 851.607 1919.55 869.057C1932.21 871.474 1946.23 873.235 1958.9 870.91C1985.67 865.984 1974.93 834.587 1967.17 821.561C1966.01 819.689 1964.72 817.881 1963.33 816.143C1939.93 785.944 1903.98 762.892 1870.87 742.646C1855.43 733.184 1839.2 724.008 1823.16 715.109C1670.78 630.542 1316.68 381.118 1155 311C1001 260.121 835 208.273 621 147.638C543.469 123.716 459.99 111.775 377.481 117.408C310.018 122.016 243.604 135.749 177.507 147.638C94.7949 162.518 6.1571 178.544 -77.8416 161.391C-123.103 152.175 -166.739 130.516 -199.347 100.48C-235.579 67.116 -245.151 21.7704 -243.017 -22.0391C-237.983 -125.07 -187.248 -228.409 -152.483 -329.422C-135.259 -379.427 -130.516 -406.5 -127.154 -460.595C-127.154 -511.177 -137.006 -567.169 -152.483 -601.383C-178.541 -658.987 -210.231 -716.667 -257.296 -762.315C-273.833 -778.159 -291.478 -793.022 -310.119 -806.811C-369.659 -851.183 -440.023 -890.241 -515.883 -907.261C-535.015 -911.542 -560.693 -915.361 -579.091 -907.21C-636.182 -881.915 -500.296 -801.567 -481.367 -787.2" fill="#00237C"/>
<path d="M-682.631 -702.043C-617.169 -651.013 -558.823 -594.642 -512.701 -531.055C-482.415 -489.302 -453.102 -443.367 -437.655 -396.694C-411.528 -317.76 -418.194 -230.626 -420.626 -147.736C-423.314 -56.3369 -427.207 36.5688 -409.315 125.477C-399.657 173.462 -378.396 217.736 -334.634 251.852C-293.547 283.907 -243.812 305.424 -190.222 318.289C-77.4214 345.352 44.0146 343.025 160.184 341.928C222.593 341.333 285.013 340.165 347.422 341.088C403.591 341.918 463.482 341.682 518.313 353.081C671.008 384.86 812.975 468.078 940.371 542.04C985.301 568.129 1030.73 594.064 1075.26 620.553C1147.02 663.228 1215.13 710.609 1286.5 754.073C1663.94 944.041 1730.89 977.798 1805.98 990.796C1822.19 993.605 1839.72 996.024 1855.63 994.558C1877.95 992.508 1911.05 985.63 1914.74 961.878C1914.97 960.52 1915.05 959.147 1914.97 957.777C1913.76 934.333 1887.1 913.134 1869.28 897.634C1857.96 887.94 1846.03 878.771 1833.53 870.171C1705.34 780.515 1243.74 552.424 1098.31 482.009C949.651 410.149 795.862 351.26 637 299C548.526 269.897 443.255 232.241 347.422 233C266.854 233.666 207.073 250.888 127.137 257.234C28.0445 265.107 -93.0995 281.508 -190.222 257.234C-241.817 244.338 -274.414 211.698 -310.539 177.931C-347.028 143.898 -357.451 97.0399 -357.014 53.5958C-355.98 -49.6532 -312.813 -153.476 -290.567 -256.705C-280.021 -305.633 -272.176 -355.761 -276.543 -405.571C-280.788 -453.956 -301.453 -495.422 -327.153 -537.81C-362.098 -595.503 -403.452 -651.751 -453.308 -700.218C-470.139 -716.531 -489.039 -731.24 -509.672 -744.082C-564.406 -778.239 -627.374 -808.511 -697.421 -813.37C-719.546 -814.907 -745.465 -814.077 -765.668 -805.815C-822.859 -782.432 -703.126 -717.337 -682.631 -702.043Z" fill="#C4C4C4"/>
</g>
</svg>
